X:1
T:Verley uns frieden
T:Verley uns frieden
T:Martin Luther
T:Source : Harmonia-Cantionum Ecclesiasticarum---Leipzig---F.Schnelboltz---1597. Editor : André Vierendeels (06/12/14).
C:Martin Luther
%%score [ 1 2 3 4 ]
L:1/8
Q:1/4=120
M:2/2
K:F
V:1 treble nm="Cantus" snm="C"
V:2 treble nm="Altus" snm="A"
V:3 treble-8 nm="Tenor" snm="T"
V:4 bass nm="Bassus" snm="B"
V:1
 G4 G2 G2 | ^F2 G2 B2 A2 | G2 B2 c2 c2 | B2 c2 d2 d2 | z2 d2 d2 c2 | d2 B2 c2 BA | G2 G2 B2 B2 | %7
w: Ver- ley uns|frie- den gne- dig-|lich, Herr Gott in|un- sern zei- ten,|es ist doch|ja kein an- der _|nicht der für uns|
 c2 BA G2 G2 | z2 c2 d2 c2 | G2 B2 A2 B2 | G8- | G8 ||[K:C] A4 A4 | G4 c4 | c4 d4 | e4 c4 | d4 d4 | %17
w: kön- ne _ strei- ten|denn du un-|ser Gott al- lei-|ne.|_|Gib un-|sern Für-|sten und|al- ler|U- brig-|
 e4 e4 | f4 e4 | d4 d4 | c4 e4 | e4 ^c4 | d4 f4 | e4 g4 | e4 f4 | e4 d4 | e4 e4 | f4 e4 | g4 e4 | %29
w: keit, Fried|und gut|re- gi-|ment, das|wir un-|ter ih-|nen ein|ge- trüg-|lich und|stil- les|le- ben|füh- ren|
 d4 c4 | e4 e4 | c4 d4 | c4 B4 | A4 G4 | A4 B4 | c4 A4 | A8- | A8 |] %38
w: mö- gen,|in al-|ler Gott-|se- lig-|keit und|Er- *|* bar-|keit.|_|
V:2
 D4 D2 _E2 | D2 G2 G2 ^F2 | G2 D2 F2 F2 | D2 F2 F2 F2 | z2 B2 B2 A2 | B2 F2 F2 D2 | D2 D2 G2 G2 | %7
w: Ver- ley uns|fie- den gne- dig-|lich, Herr Gott in|un- sern zei- ten,|es ist doch|ja kein an- der|nicht der für uns|
 A2 GF G2 G2 | z2 A2 B2 A2 | G4 A2 G2 | GF_ED CD E2 | D8 ||[K:C] E4 E4 | E4 A4 | G4 G4 | G4 F4 | %16
w: kön- ne _ strei- ten|denn du un-|ser Gott al-|lei- * * * * * *|ne.|Gib un-|sern Für-|sten und|al- ler|
 F4 F4 | E4 G4 | A4 G4 | G4 G4 | E4 G4 | G4 A4 | B4 c4 | c4 c4 | c4 c4 | c4 A4 | A4 A4 | A4 A4 | %28
w: U- brig-|keit, Fried|und gut|re- gi-|ment, das|wir un-|ter ih-|nen ein|ge- trüg-|lich und|stil- les|le- ben|
 B4 c4 | B4 c4 | G4 G4 | A4 B4 | A4 ^G4 | A4 B4 | A4 G4 | A6 G2 | F4 F4 | E8 |] %38
w: füh- ren|mö- gen,|in al-|ler Gott-|se- lig-|keit und|Er- *||* bar-|keit.|
V:3
 G4 B2 c2 | A2 B2 d2 d2 | d2 B2 A2 A2 | B2 A2 B2 B2 | z2 f2 f2 f2 | f2 d2 A2 GA | B2 B2 d2 d2 | %7
w: Ver- ley uns|frie- den gne- dig-|lich, Herr Gott in|un- sern zei- ten,|es ist doch|ja kein an- der _|nicht der für uns|
 f2 d2 d2 d2 | z2 f2 f2 f2 | d2 d4 G2 | g3 f _ed c2 | =B8 ||[K:C] A4 c4 | B4 A4 | c4 B4 | c4 A4 | %16
w: kön- ne strei- ten|denn du un-|ser Gott al-|lei- * * * *|ne.|Gib un-|sern Für-|sten und|al- ler|
 d4 d4 | G4 c4 | c4 c4 | B4 B4 | c4 c4 | e4 e4 | g4 a4 | g4 e4 | g4 a4 | g4 f4 | e4 ^c4 | d4 ^c4 | %28
w: U- brig-|keit, Fried|und gut|re- gi-|ment, das|wir un-|ter ih-|nen ein|ge- trüg-|lich und|stil- les|le- ben|
 d4 e4 | g4 g4 | g4 e4 | e4 g4 | e4 e4 | e4 e4 | c4 B4 | A2 B2 c2 A2 | d4 d4 | ^c8 |] %38
w: füh- ren|mö- gen,|in al-|ler Gott-|se- lig-|keit und|Er- *||* bar-|keit.|
V:4
 G,4 G,2 C,2 | D,2 G,,2 G,2 D,2 | G,,2 G,2 F,2 E,2 | G,2 F,2 B,,2 B,,2 | z2 B,2 B,2 F,2 | %5
w: Ver- ley uns|fri- den gne- dig-|lich, Herr Gott in|un- sern zei- ten,|es ist doch|
 B,2 B,,2 F,2 G,D, | G,2 G,,2 G,2 G,2 | F,2 G,D, G,,2 G,,2 | z2 F,,2 B,,2 F,,2 | %9
w: ja kein an- der _|nicht der für uns|kön- ne _ strei- ten|denn du un-|
 G,,2 G,2 F,2 _E,2- | E,D, C,3 B,, C,2 | G,,8 ||[K:C] A,4 A,4 | E,4 F,4 | C,4 G,4 | C,4 F,4 | %16
w: ser Gott al- lei-||ne.|Gib un-|sern Für-|sten und|al- ler|
 D,4 D,4 | C,4 C,4 | F,4 C,4 | G,4 G,4 | C,4 C4 | C4 A,4 | G,4 F,4 | C,4 C4 | C,4 F,4 | C,4 D,4 | %26
w: U- brig-|* Fried|und gur|re- gi-|ment, das|wir un-|ter ih-|nen ein|ge- trüg-|lich und|
 A,4 A,4 | D4 A,4 | G,4 C4 | G,4 C,4 | C4 C4 | A,4 G,4 | A,4 E,4 | A,,4 E,4 | F,4 G,4 | F,6 E,2 | %36
w: stil- les|le- ben|füh- ren|mö- gen,|in al-|ler Gott-|se- lig-|keit und|Er- *||
 D,4 D,4 | A,,8 |] %38
w: * bar-|keit.|

